X:1
T:Title
%%score { ( 1 3 ) | ( 2 4 ) }
L:1/8
M:6/8
K:G
V:1 bass nm="Grand Piano"
V:3 bass 
V:2 bass 
V:4 bass 
V:1
 z3 z2[Q:1/4=90] [D,B,D] | z3[K:treble] .A3 | F6[K:bass] | [G,D]3 .[Ec]3 |[M:5/8] A-A- A3 | %5
[M:1/8] [EGA] |[M:3/4] A2 A B2 c | d2 B A2 G | F3[K:bass] [G,^CE]3 |[M:5/8] [F,D]-[F,D]- [F,D]3 | %10
[M:1/8] [F,D] |[M:3/4][K:treble] [CFA]2 [B,=F^G] [C^FA]2 [DFB] | [CFA]3 G2 A | B2 _B =B2 c | %14
[M:5/8] [DB]3 A2 |[M:1/8] A |[M:3/4] A2 A B2 c | d2 e d2 G | [CGA]3 [DFB]3 | %19
[M:5/8] [B,G]-[B,G]- [B,G]3 |] %20
V:2
 z3 z2 G,, | z2[K:treble] B[K:bass] [G,,D,]3 | [A,,D,]2 A,, A,,2 A,, | z2[K:treble] d z2 B | %4
[M:5/8][K:bass] C,2 C, C,2 |[M:1/8] C, |[M:3/4][K:treble] [CDF]2 [CDF] [CDF]2 [CDF] | %7
 [B,DG]2 [G,DG][K:bass] [F,D]2 [G,B,E] | [A,D]3 A,,3 |[M:5/8] D,-D,- D,3 |[M:1/8] D, | %11
[M:3/4] D,2 D, D,2 D, | z2 z B,2 [=F,A,D] | [E,^G,D]2 [E,G,D] [E,G,D]2 [E,G,D] | %14
[M:5/8] z z2[K:treble] C2 |[M:1/8] [A,CE] |[M:3/4] [CDF]2 [CDF] [CDF]2 [CDF] | %17
 [B,DG]2 [CG] [B,DG]2[K:bass] [E,^C] | D,3 D,3 |[M:5/8] G,,-G,,- G,,3 |] %20
V:3
 x6 | .[G,B,E]3[K:treble] B,2- [B,G] | C2[K:bass] [D,B,] [D,A,]2 [F,CE] | x6 | %4
[M:5/8] [A,E]2 [B,E] [CE]2 |[M:1/8] x |[M:3/4] x6 | x6 | x3[K:bass] x3 |[M:5/8] x5 |[M:1/8] x | %11
[M:3/4][K:treble] x6 | x6 | x6 |[M:5/8] x5 |[M:1/8] x |[M:3/4] x6 | x6 | x6 |[M:5/8] x5 |] %20
V:4
 x6 | G,,3[K:treble][K:bass] z3 | x6 | B,,3[K:treble] [B,,^G,]3 |[M:5/8][K:bass] x5 |[M:1/8] x | %6
[M:3/4][K:treble] x6 | x3[K:bass] x3 | x6 |[M:5/8] x5 |[M:1/8] x |[M:3/4] x6 | G,6 | x6 | %14
[M:5/8] [A,,A,]-[A,,A,]- [A,,A,]3[K:treble] |[M:1/8] x |[M:3/4] x6 | x5[K:bass] x | x6 | %19
[M:5/8] x5 |] %20

